Infinity-Icons/Infinity-Dark-Icons/apps/48/kuser.svg

<?xml version="1.0" encoding="UTF-8" standalone="no"?>
<svg
   width="48"
   height="48"
   version="1.1"
   id="svg29"
   sodipodi:docname="kuser.svg"
   inkscape:version="1.2.1 (9c6d41e410, 2022-07-14)"
   xmlns:inkscape="http://www.inkscape.org/namespaces/inkscape"
   xmlns:sodipodi="http://sodipodi.sourceforge.net/DTD/sodipodi-0.dtd"
   xmlns="http://www.w3.org/2000/svg"
   xmlns:svg="http://www.w3.org/2000/svg">
  <sodipodi:namedview
     id="namedview31"
     pagecolor="#ffffff"
     bordercolor="#666666"
     borderopacity="1.0"
     inkscape:showpageshadow="2"
     inkscape:pageopacity="0.0"
     inkscape:pagecheckerboard="0"
     inkscape:deskcolor="#d1d1d1"
     showgrid="false"
     inkscape:zoom="4.9166667"
     inkscape:cx="24"
     inkscape:cy="24"
     inkscape:window-width="1920"
     inkscape:window-height="1011"
     inkscape:window-x="0"
     inkscape:window-y="0"
     inkscape:window-maximized="1"
     inkscape:current-layer="svg29" />
  <defs
     id="defs17">
    <linearGradient
       id="a"
       y1="545.8"
       y2="517.8"
       gradientUnits="userSpaceOnUse"
       x2="0">
      <stop
         stop-color="#197cf1"
         id="stop2" />
      <stop
         offset="1"
         stop-color="#20bcfa"
         id="stop4" />
    </linearGradient>
    <linearGradient
       id="b"
       y1="524.8"
       y2="538.8"
       x1="393.57"
       gradientUnits="userSpaceOnUse"
       x2="407.57"
       gradientTransform="translate(-384.57,-515.8)">
      <stop
         stop-color="#383e51"
         id="stop7" />
      <stop
         offset="1"
         stop-color="#655c6f"
         stop-opacity="0"
         id="stop9" />
    </linearGradient>
    <linearGradient
       id="c"
       y1="34"
       y2="14"
       x2="0"
       gradientUnits="userSpaceOnUse">
      <stop
         stop-color="#7cbaf8"
         id="stop12" />
      <stop
         offset="1"
         stop-color="#f4fcff"
         id="stop14" />
    </linearGradient>
  </defs>
  <g
     transform="matrix(1.0500006,0,0,1.0500006,-405.00116,-525.99401)"
     id="g27">
    <g
       transform="matrix(1.42857,0,0,1.42857,-163.67,-235.91)"
       id="g23">
      <rect
         width="28"
         x="386.57001"
         y="517.79999"
         fill="url(#a)"
         rx="14"
         height="28"
         id="rect19"
         style="fill:url(#a)" />
      <path
         opacity="0.2"
         fill="url(#b)"
         fill-rule="evenodd"
         d="m 16,9 c 0.218,0 0.429,0.022 0.635,0.063 10e-4,0 0.003,0 0.004,0 0.205,0.038 0.401,0.098 0.592,0.17 l -0.23,-0.232 z m -0.044,0.3 c -2.198,0.444 -2.694,1.209 -2.756,3.2 -0.605,4.836 4.627,1.7 2.8,3.5 l -2.1,0.7 C 10.959,18.265 9.501,19.281 9,23 l 7,7 H 30 V 20 l -1,1 -9,-9 -0.732,-0.73 c 0.072,0.191 0.132,0.387 0.17,0.592 0,10e-4 0,0.003 0,0.004 0.038,0.206 0.063,0.417 0.063,0.635 -1.865,1.706 -1.296,1.605 -0.431,0.022 0,-1.385 -1.727,-3.222 -3.113,-3.222"
         transform="translate(384.57,515.8)"
         id="path21"
         style="fill:url(#b)" />
    </g>
    <path
       fill="url(#c)"
       color-rendering="auto"
       shape-rendering="auto"
       color-interpolation-filters="linearRGB"
       image-rendering="auto"
       text-rendering="auto"
       color-interpolation="sRGB"
       color="#4d4d4d"
       d="m 24,14 a 5,5 0 0 0 -5,5 5,5 0 0 0 5,5 5,5 0 0 0 5,-5 5,5 0 0 0 -5,-5 m 0,10 A 10,10 0 0 0 14,34 H 30 V 33 H 15.06 A 9,9 0 0 1 24,25 9,9 0 0 1 30,27.304688 V 26.01 A 10,10 0 0 0 24,24 m 0,-9 a 4.00001,4 0 0 1 4,4 4.00001,4 0 0 1 -4,4 4.00001,4 0 0 1 -4,-4 4.00001,4 0 0 1 4,-4 m 9,9 a 1,1 0 0 0 -1,1 1,1 0 0 0 1,1 1,1 0 0 0 1,-1 1,1 0 0 0 -1,-1 m -1,4 v 6 h 2 v -6 z"
       transform="translate(384.57,499.8)"
       id="path25"
       style="fill:url(#c)" />
  </g>
</svg>

<svg width="48" xmlns="http://www.w3.org/2000/svg" height="48">
 <defs>
  <linearGradient id="a" y1="545.8" y2="517.8" gradientUnits="userSpaceOnUse" x2="0">
   <stop stop-color="#197cf1"/>
   <stop offset="1" stop-color="#20bcfa"/>
  </linearGradient>
  <linearGradient id="b" y1="524.8" y2="538.8" x1="393.57" gradientUnits="userSpaceOnUse" x2="407.57" gradientTransform="translate(-384.57-515.8)">
   <stop stop-color="#383e51"/>
   <stop offset="1" stop-color="#655c6f" stop-opacity="0"/>
  </linearGradient>
  <linearGradient id="c" y1="34" y2="14" x2="0" gradientUnits="userSpaceOnUse">
   <stop stop-color="#7cbaf8"/>
   <stop offset="1" stop-color="#f4fcff"/>
  </linearGradient>
 </defs>
 <g transform="translate(-384.57-499.8)">
  <g transform="matrix(1.42857 0 0 1.42857-163.67-235.91)">
   <rect width="28" x="386.57" y="517.8" fill="url(#a)" rx="14" height="28"/>
   <path opacity=".2" fill="url(#b)" fill-rule="evenodd" d="m16 9c.218 0 .429.022.635.063.001 0 .003 0 .004 0 .205.038.401.098.592.17l-.23-.232zm-.044.3c-2.198.444-2.694 1.209-2.756 3.2-.605 4.836 4.627 1.7 2.8 3.5l-2.1.7c-2.941 1.565-4.399 2.581-4.9 6.3l7 7h14v-10l-1 1-9-9-.732-.73c.072.191.132.387.17.592 0 .001 0 .003 0 .004.038.206.063.417.063.635-1.865 1.706-1.296 1.605-.431.022 0-1.385-1.727-3.222-3.113-3.222" transform="translate(384.57 515.8)"/>
  </g>
  <path fill="url(#c)" color-rendering="auto" shape-rendering="auto" color-interpolation-filters="linearRGB" image-rendering="auto" text-rendering="auto" color-interpolation="sRGB" color="#4d4d4d" d="M24 14A5 5 0 0 0 19 19 5 5 0 0 0 24 24 5 5 0 0 0 29 19 5 5 0 0 0 24 14M24 24A10 10 0 0 0 14 34H30V33H15.06A9 9 0 0 1 24 25 9 9 0 0 1 30 27.304688V26.01A10 10 0 0 0 24 24M24 15A4.00001 4 0 0 1 28 19 4.00001 4 0 0 1 24 23 4.00001 4 0 0 1 20 19 4.00001 4 0 0 1 24 15M33 24A1 1 0 0 0 32 25 1 1 0 0 0 33 26 1 1 0 0 0 34 25 1 1 0 0 0 33 24M32 28V34H34V28z" transform="translate(384.57 499.8)"/>
 </g>
</svg>
